!!! OTL: Berkowitz335
!!! Chapter: 1
!!! Section: III
!!! Page: 82
!!! Mode: 
!!! Encoder: DJB
**kern
*staff1
*I"Piano
=1-
*clefG2
*k[b-]
*F:
*M3/2
2r
2r
4r
4c/
=2
4b-\
4f#/
4g/
4a/
4b-\
4bn\
=3
2dd\
2cc\
4r
[4ff\
=4
4ff\]
4dd\
4b-\
4a/
4g/
4g#/
=5
2a/
4r
2cc\
4cc#\
=6
4ee\
4dd\
4cc\
4b-\
4a/
4f#/
=7
2a/
2g/
4r
[4dd\
=8
!!linebreak:original
4dd\]
4cc\
4a/
4b-\
4d/
4e/
=9
1f
2r
==
*-
